dist/assets/images/logo.svg

<svg width="231" height="68" viewBox="0 0 231 68" fill="none" xmlns="http://www.w3.org/2000/svg">
<path d="M165.495 10.4081C157.396 10.4081 150.803 17.0555 150.803 25.2363V32.6955C150.803 38.6281 154.282 43.749 159.287 46.1151C159.287 46.1359 159.28 46.1498 159.28 46.1706V55.6351C159.28 56.7522 160.181 57.6612 161.288 57.6612C162.394 57.6612 163.295 56.7453 163.295 55.6351V47.3294C164.01 47.4404 164.739 47.5098 165.488 47.5098C166.231 47.5098 166.953 47.4334 167.668 47.3294V55.6212C167.668 56.7383 168.575 57.6473 169.675 57.6473C170.782 57.6473 171.683 56.7314 171.683 55.6212V46.1637C171.683 46.1428 171.676 46.129 171.676 46.1151C176.688 43.749 180.173 38.6281 180.173 32.6885V25.2363C180.187 17.0555 173.594 10.4081 165.495 10.4081Z" fill="black"/>
<path d="M204.146 10.4081C196.048 10.4081 189.454 17.0555 189.454 25.2363V32.6955C189.454 38.6351 192.94 43.7559 197.952 46.122H197.966C197.966 46.1359 197.959 46.1498 197.959 46.1706V55.6351C197.959 56.7522 198.866 57.6612 199.966 57.6612C201.073 57.6612 201.974 56.7453 201.974 55.6351V47.3363C202.682 47.4404 203.404 47.5167 204.139 47.5167C204.896 47.5167 205.624 47.4404 206.346 47.3294V55.6281C206.346 56.7453 207.247 57.6543 208.354 57.6543C209.461 57.6543 210.361 56.7383 210.361 55.6281V46.1637C210.361 46.1428 210.354 46.122 210.354 46.1012C215.346 43.7351 218.824 38.6212 218.824 32.6885V25.2363C218.831 17.0555 212.245 10.4081 204.146 10.4081Z" fill="black"/>
<path d="M214.727 32.6886C214.727 38.5796 209.976 43.3743 204.14 43.3743C198.303 43.3743 193.552 38.5796 193.552 32.6886V25.2363C193.552 19.3453 198.303 14.5506 204.14 14.5506C209.976 14.5506 214.727 19.3453 214.727 25.2363V32.6886Z" fill="#FFD530"/>
<path d="M126.851 10.4081C118.752 10.4081 112.159 17.0555 112.159 25.2363V32.6955C112.159 38.6281 115.638 43.742 120.636 46.1081C120.636 46.129 120.629 46.1428 120.629 46.1637V55.6281C120.629 56.7453 121.536 57.6543 122.636 57.6543C123.743 57.6543 124.644 56.7383 124.644 55.6281V47.3294V46.1637C124.644 46.1428 124.637 46.129 124.637 46.1151C124.637 46.0943 124.63 46.0735 124.63 46.0457V43.1314C123.166 42.8192 121.818 42.1877 120.649 41.3343C117.996 39.3914 116.256 36.2412 116.256 32.6886V25.2363C116.256 19.3453 121.007 14.5506 126.844 14.5506C132.681 14.5506 137.431 19.3453 137.431 25.2363V32.6955C137.431 36.2481 135.692 39.3984 133.038 41.3412C131.869 42.2016 130.522 42.8261 129.058 43.1383V46.1151C129.058 46.122 129.058 46.1359 129.058 46.1428V47.3224V55.6004C129.058 56.7175 129.958 57.6265 131.065 57.6265C132.172 57.6265 133.073 56.7106 133.073 55.6004V46.1498C133.073 46.1359 133.066 46.122 133.066 46.1012C138.057 43.7351 141.536 38.6212 141.536 32.6886V25.2363C141.536 17.0555 134.949 10.4081 126.851 10.4081Z" fill="black"/>
<path d="M22.275 34.8326V21.7391L18.755 27.2832C18.5969 27.5469 18.315 27.6995 18.0056 27.6995C17.6962 27.6995 17.4075 27.5399 17.2287 27.2832L13.7294 21.7391V34.8326C13.7294 35.3252 13.3169 35.7485 12.8219 35.7485C12.3269 35.7485 11.9144 35.3322 11.9144 34.8326V18.5959C11.9144 18.1795 12.1756 17.8118 12.5606 17.7077C12.9525 17.6036 13.365 17.7632 13.5987 18.1032L17.9987 25.0836L22.4262 18.1032C22.6325 17.7632 23.045 17.6036 23.4369 17.7077C23.8219 17.8118 24.0831 18.1795 24.0831 18.5959V34.8326C24.0831 35.3252 23.6981 35.7485 23.1756 35.7485C22.6944 35.7485 22.275 35.3322 22.275 34.8326Z" fill="black"/>
<path d="M38.4449 34.8326C38.4449 35.3252 38.0599 35.7485 37.5374 35.7485H28.6549C28.1393 35.7485 27.7474 35.3322 27.7474 34.8326V18.575C27.7474 18.0754 28.1324 17.6591 28.6549 17.6591H37.5374C38.0531 17.6591 38.4449 18.0754 38.4449 18.575C38.4449 19.0954 38.0599 19.491 37.5374 19.491H29.5624V25.7914H34.0174C34.5124 25.7914 34.9249 26.1869 34.9249 26.7073C34.9249 27.2069 34.5124 27.6232 34.0174 27.6232H29.5624V33.9236H37.5374C38.0531 33.9167 38.4449 34.3122 38.4449 34.8326Z" fill="black"/>
<path d="M53.8931 34.8326V21.7391L50.3731 27.2832C50.215 27.5469 49.9331 27.6995 49.6237 27.6995C49.3143 27.6995 49.0256 27.5399 48.8468 27.2832L45.3475 21.7391V34.8326C45.3475 35.3252 44.935 35.7485 44.44 35.7485C43.945 35.7485 43.5325 35.3322 43.5325 34.8326V18.5959C43.5325 18.1795 43.7937 17.8118 44.1787 17.7077C44.5706 17.6036 44.9831 17.7632 45.2168 18.1032L49.6168 25.0836L54.0443 18.1032C54.2506 17.7632 54.6631 17.6036 55.055 17.7077C55.44 17.8118 55.7012 18.1795 55.7012 18.5959V34.8326C55.7012 35.3252 55.3162 35.7485 54.7937 35.7485C54.3125 35.7485 53.8931 35.3322 53.8931 34.8326Z" fill="black"/>
<path d="M70.0631 34.8326C70.0631 35.3252 69.6781 35.7485 69.1556 35.7485H60.2731C59.7575 35.7485 59.3656 35.3322 59.3656 34.8326V18.575C59.3656 18.0754 59.7506 17.6591 60.2731 17.6591H69.1556C69.6712 17.6591 70.0631 18.0754 70.0631 18.575C70.0631 19.0954 69.6781 19.491 69.1556 19.491H61.1806V25.7914H65.6356C66.1306 25.7914 66.5431 26.1869 66.5431 26.7073C66.5431 27.2069 66.1306 27.6232 65.6356 27.6232H61.1806V33.9236H69.1556C69.6712 33.9167 70.0631 34.3122 70.0631 34.8326Z" fill="black"/>
<path d="M77.1031 36.3175C76.9106 36.3175 76.7388 36.2828 76.6081 36.2551L76.5875 36.2481C75.5975 36.0053 74.9031 35.1102 74.9031 34.0693V19.3591C74.9031 18.1379 75.8863 17.1387 77.1031 17.1387C78.3338 17.1387 79.3031 18.1102 79.3031 19.3591V24.7575L79.5025 24.3689C79.8875 23.6265 80.6575 23.1547 81.4619 23.1547C82.3006 23.1547 83.05 23.6195 83.4213 24.3689L83.7169 24.9518V19.3591C83.7169 18.1379 84.7 17.1387 85.9169 17.1387C87.1613 17.1387 88.1375 18.1102 88.1375 19.3591V34.0763C88.1375 35.0893 87.4294 36.0053 86.46 36.2481C85.47 36.491 84.4456 36.0261 83.9644 35.1171L81.4894 30.2738L79.0625 35.0824C78.6775 35.8457 77.9281 36.3175 77.1031 36.3175Z" fill="black"/>
<path d="M76.8281 35.1934C76.9381 35.2142 77.0275 35.235 77.0962 35.235C77.5156 35.235 77.8937 34.9922 78.0862 34.5967L81.4687 27.8938L84.9062 34.6175C85.1537 35.0824 85.6831 35.3252 86.1919 35.2003C86.6869 35.0754 87.0512 34.6036 87.0512 34.0832V19.3591C87.0512 18.7277 86.5494 18.2281 85.91 18.2281C85.2844 18.2281 84.7894 18.7207 84.7894 19.3591V29.3995L82.4519 24.8616C82.2594 24.473 81.8812 24.2371 81.455 24.2371C81.0425 24.2371 80.6506 24.4799 80.4581 24.8616L78.2237 29.3232V19.3591C78.2237 18.7138 77.7425 18.2281 77.1031 18.2281C76.4775 18.2281 75.9825 18.7207 75.9825 19.3591V34.0763C75.9825 34.6105 76.3331 35.0685 76.8281 35.1934Z" fill="#FFD530"/>
<path d="M101.764 36.2967H93.6581C92.4344 36.2967 91.4375 35.3044 91.4375 34.0763V19.3591C91.4375 18.1171 92.4138 17.1387 93.6581 17.1387H101.764C102.994 17.1387 103.964 18.1102 103.964 19.3591C103.964 20.5804 102.981 21.5795 101.764 21.5795H95.8512V24.4661H98.5462C99.7769 24.4661 100.746 25.4514 100.746 26.7073C100.746 27.9285 99.7631 28.9277 98.5462 28.9277H95.8512V31.8351H101.764C102.994 31.8351 103.964 32.8204 103.964 34.0763C103.957 35.2975 102.974 36.2967 101.764 36.2967Z" fill="black"/>
<path d="M93.6513 18.2281C93.0119 18.2281 92.51 18.7207 92.51 19.3591V34.0763C92.51 34.7007 93.0256 35.2073 93.6513 35.2073H101.757C102.376 35.2073 102.878 34.7007 102.878 34.0763C102.878 33.4309 102.389 32.9244 101.757 32.9244H94.765V27.8383H98.5394C99.1581 27.8383 99.66 27.3318 99.66 26.7073C99.66 26.062 99.1719 25.5554 98.5394 25.5554H94.765V20.4901H101.757C102.376 20.4901 102.878 19.9836 102.878 19.3591C102.878 18.7138 102.396 18.2281 101.757 18.2281H93.6513Z" fill="#FFD530"/>
<path d="M11.6875 50.202V45.0881C11.6875 42.2085 14.0319 39.8424 16.9056 39.8424C19.7794 39.8424 22.1237 42.2085 22.1237 45.0881C22.1237 45.5322 21.7731 45.893 21.3469 45.893C20.9069 45.893 20.5494 45.5322 20.5494 45.0881C20.5494 43.0551 18.9131 41.4036 16.8987 41.4036C14.8844 41.4036 13.2275 43.0551 13.2275 45.0881V50.202C13.2275 52.2351 14.8844 53.9073 16.8987 53.9073C18.9131 53.9073 20.5494 52.2351 20.5494 50.202V49.6191H16.0462C15.6269 49.6191 15.2694 49.2583 15.2694 48.8351C15.2694 48.391 15.62 48.051 16.0462 48.051H21.3537C21.7731 48.051 22.1306 48.384 22.1306 48.8351V50.1951C22.1306 53.0955 19.7862 55.4616 16.9125 55.4616C14.0387 55.4616 11.6875 53.1024 11.6875 50.202Z" fill="black"/>
<path d="M28.3525 45.8445L25.52 54.8232C25.4306 55.1563 25.1212 55.3783 24.7912 55.3783C24.7019 55.3783 24.64 55.3575 24.5506 55.3367C24.1519 55.2049 23.9319 54.7816 24.0419 54.3514L26.8744 45.3518C27.005 44.9494 27.4519 44.7273 27.8506 44.8592C28.2631 44.9771 28.4831 45.4212 28.3525 45.8445ZM33.8594 55.3367C33.7906 55.3575 33.7012 55.3783 33.6394 55.3783C33.3094 55.3783 33 55.1563 32.89 54.8232L31.625 50.8057H28.4625C28.0431 50.8057 27.6856 50.4449 27.6856 50.0216C27.6856 49.5983 28.0431 49.2375 28.4625 49.2375H31.1162L28.4625 40.8694C28.3319 40.4461 28.5725 39.9951 28.9712 39.8841C29.37 39.7522 29.81 39.9743 29.9475 40.3767L34.375 54.3514C34.4987 54.7747 34.2787 55.2049 33.8594 55.3367Z" fill="black"/>
<path d="M46.1793 55.0036L38.7475 43.4159V54.6012C38.7475 55.0245 38.39 55.3853 37.9706 55.3853C37.5512 55.3853 37.1937 55.0245 37.1937 54.6012V40.7306C37.1937 40.3698 37.4137 40.0575 37.7437 39.9743C38.0737 39.8841 38.4312 40.0159 38.6306 40.3073L46.0419 51.9159V40.7306C46.0419 40.2865 46.3925 39.9465 46.8187 39.9465C47.2587 39.9465 47.5956 40.2796 47.5956 40.7306V54.5943C47.5956 54.9273 47.3756 55.2396 47.0456 55.3298C46.9769 55.3506 46.915 55.3714 46.8256 55.3714C46.5781 55.3783 46.31 55.2465 46.1793 55.0036Z" fill="black"/>
<path d="M51.0538 50.202V45.0881C51.0538 42.2085 53.3981 39.8424 56.2719 39.8424C59.1456 39.8424 61.49 42.2085 61.49 45.0881C61.49 45.5322 61.1394 45.893 60.7131 45.893C60.2731 45.893 59.9156 45.5322 59.9156 45.0881C59.9156 43.0551 58.2794 41.4036 56.265 41.4036C54.2506 41.4036 52.5938 43.0551 52.5938 45.0881V50.202C52.5938 52.2351 54.2506 53.9073 56.265 53.9073C58.2794 53.9073 59.9156 52.2351 59.9156 50.202V49.6191H55.4125C54.9931 49.6191 54.6356 49.2583 54.6356 48.8351C54.6356 48.391 54.9863 48.051 55.4125 48.051H60.72C61.1394 48.051 61.4969 48.384 61.4969 48.8351V50.1951C61.4969 53.0955 59.1525 55.4616 56.2788 55.4616C53.405 55.4616 51.0538 53.1024 51.0538 50.202Z" fill="black"/>
<path d="M73.8031 55.0036L66.3713 43.4159V54.6012C66.3713 55.0245 66.0138 55.3853 65.5944 55.3853C65.175 55.3853 64.8175 55.0245 64.8175 54.6012V40.7306C64.8175 40.3698 65.0375 40.0575 65.3675 39.9743C65.6975 39.8841 66.055 40.0159 66.2544 40.3073L73.6656 51.9159V40.7306C73.6656 40.2865 74.0231 39.9465 74.4425 39.9465C74.8825 39.9465 75.2194 40.2796 75.2194 40.7306V54.5943C75.2194 54.9273 74.9994 55.2396 74.6694 55.3298C74.6006 55.3506 74.5388 55.3714 74.4494 55.3714C74.2019 55.3783 73.9406 55.2465 73.8031 55.0036Z" fill="black"/>
<path d="M82.5206 45.8444L79.6881 54.8232C79.5988 55.1563 79.2894 55.3783 78.9594 55.3783C78.87 55.3783 78.8081 55.3575 78.7188 55.3367C78.32 55.2048 78.1 54.7816 78.21 54.3514L81.0425 45.3518C81.1731 44.9493 81.62 44.7273 82.0188 44.8591C82.4313 44.9771 82.6513 45.4212 82.5206 45.8444ZM88.0275 55.3367C87.9588 55.3575 87.8694 55.3783 87.8075 55.3783C87.4775 55.3783 87.1681 55.1563 87.0581 54.8232L85.8 50.8057H82.6375C82.2181 50.8057 81.8606 50.4448 81.8606 50.0216C81.8606 49.5983 82.2181 49.2375 82.6375 49.2375H85.2913L82.6375 40.8624C82.5069 40.4391 82.7475 39.9881 83.1463 39.8771C83.545 39.7453 83.985 39.9673 84.1225 40.3697L88.55 54.3444C88.6738 54.7746 88.4469 55.2048 88.0275 55.3367Z" fill="black"/>
<path d="M100.176 54.6012V43.4159L97.1643 48.1481C97.0337 48.3702 96.7862 48.509 96.525 48.509C96.2568 48.509 96.0162 48.3771 95.865 48.1481L92.8812 43.4159V54.6012C92.8812 55.0245 92.5306 55.3853 92.1043 55.3853C91.685 55.3853 91.3275 55.0245 91.3275 54.6012V40.7306C91.3275 40.3698 91.5475 40.0575 91.8775 39.9743C92.2075 39.8841 92.565 40.0159 92.7643 40.3073L96.525 46.2677L100.306 40.3073C100.485 40.0159 100.836 39.8841 101.166 39.9743C101.496 40.0645 101.716 40.3767 101.716 40.7306V54.5943C101.716 55.0175 101.386 55.3783 100.939 55.3783C100.526 55.3783 100.176 55.0245 100.176 54.6012Z" fill="black"/>
</svg>

<svg width="231" height="68" fill="none" xmlns="http://www.w3.org/2000/svg"><path d="M165.495 10.408c-8.099 0-14.692 6.647-14.692 14.828v7.46a14.84 14.84 0 008.484 13.42c0 .02-.007.034-.007.055v9.464a2.02 2.02 0 002.008 2.026c1.106 0 2.007-.916 2.007-2.026V47.33c.715.111 1.444.18 2.193.18.743 0 1.465-.076 2.18-.18v8.292c0 1.117.907 2.026 2.007 2.026 1.107 0 2.008-.916 2.008-2.026v-9.457c0-.021-.007-.035-.007-.049a14.842 14.842 0 008.497-13.427v-7.452c.014-8.18-6.579-14.828-14.678-14.828zm38.651 0c-8.098 0-14.692 6.647-14.692 14.828v7.46c0 5.94 3.486 11.06 8.498 13.426h.014c0 .014-.007.028-.007.049v9.464c0 1.117.907 2.026 2.007 2.026 1.107 0 2.008-.916 2.008-2.026v-8.299c.708.104 1.43.18 2.165.18.757 0 1.485-.076 2.207-.187v8.3a2.02 2.02 0 002.008 2.025c1.107 0 2.007-.916 2.007-2.026v-9.464c0-.021-.007-.042-.007-.063a14.84 14.84 0 008.47-13.413v-7.452c.007-8.18-6.579-14.828-14.678-14.828z" fill="#000"/><path d="M214.727 32.689c0 5.89-4.751 10.685-10.587 10.685-5.837 0-10.588-4.794-10.588-10.685v-7.453c0-5.89 4.751-10.685 10.588-10.685 5.836 0 10.587 4.794 10.587 10.685v7.453z" fill="#FFD530"/><path d="M126.851 10.408c-8.099 0-14.692 6.647-14.692 14.828v7.46a14.835 14.835 0 008.477 13.412c0 .021-.007.035-.007.056v9.464c0 1.117.907 2.026 2.007 2.026 1.107 0 2.008-.916 2.008-2.026v-9.464c0-.021-.007-.035-.007-.049 0-.02-.007-.041-.007-.07v-2.914a10.46 10.46 0 01-3.981-1.797 10.708 10.708 0 01-4.393-8.645v-7.453c0-5.89 4.751-10.685 10.588-10.685 5.837 0 10.587 4.794 10.587 10.685v7.46c0 3.552-1.739 6.702-4.393 8.645a10.352 10.352 0 01-3.98 1.797V55.6c0 1.117.9 2.026 2.007 2.026 1.107 0 2.008-.915 2.008-2.026v-9.45c0-.014-.007-.028-.007-.049a14.841 14.841 0 008.47-13.412v-7.453c0-8.18-6.587-14.828-14.685-14.828zM22.275 34.833V21.739l-3.52 5.544a.863.863 0 01-.75.416.953.953 0 01-.776-.416l-3.5-5.544v13.094a.924.924 0 01-.907.916.92.92 0 01-.908-.916V18.596c0-.416.262-.784.647-.888a.961.961 0 011.038.395l4.4 6.98 4.427-6.98a.906.906 0 011.01-.395c.386.104.647.472.647.888v16.237a.906.906 0 01-.907.916.923.923 0 01-.901-.916zm16.17 0a.906.906 0 01-.908.916h-8.882a.906.906 0 01-.908-.916V18.575c0-.5.385-.916.908-.916h8.882c.516 0 .908.416.908.916a.89.89 0 01-.908.916h-7.975v6.3h4.455c.495 0 .908.396.908.916a.92.92 0 01-.908.916h-4.455v6.3h7.975a.886.886 0 01.908.91zm15.448 0V21.739l-3.52 5.544a.863.863 0 01-.75.416.953.953 0 01-.776-.416l-3.5-5.544v13.094a.924.924 0 01-.907.916.92.92 0 01-.907-.916V18.596c0-.416.26-.784.646-.888a.961.961 0 011.038.395l4.4 6.98 4.427-6.98a.906.906 0 011.011-.395c.385.104.646.472.646.888v16.237a.906.906 0 01-.907.916.923.923 0 01-.9-.916zm16.17 0a.906.906 0 01-.907.916h-8.883a.906.906 0 01-.907-.916V18.575c0-.5.385-.916.907-.916h8.883c.515 0 .907.416.907.916 0 .52-.385.916-.907.916H61.18v6.3h4.455c.495 0 .907.396.907.916a.92.92 0 01-.907.916H61.18v6.3h7.975c.515-.006.907.39.907.91zm7.04 1.485a2.33 2.33 0 01-.495-.063l-.02-.007a2.227 2.227 0 01-1.685-2.179V19.36c0-1.221.983-2.22 2.2-2.22 1.23 0 2.2.971 2.2 2.22v5.398l.2-.388c.385-.742 1.154-1.214 1.959-1.214.839 0 1.588.464 1.96 1.214l.295.583V19.36c0-1.221.983-2.22 2.2-2.22 1.244 0 2.22.971 2.22 2.22v14.717c0 1.013-.708 1.93-1.677 2.172a2.223 2.223 0 01-2.496-1.13l-2.475-4.844-2.427 4.808c-.385.764-1.134 1.236-1.959 1.236z" fill="#000"/><path d="M76.828 35.193c.11.021.2.042.268.042a1.1 1.1 0 00.99-.638l3.383-6.703 3.437 6.724a1.15 1.15 0 001.286.582c.495-.125.86-.596.86-1.117V19.36c0-.631-.503-1.13-1.142-1.13-.626 0-1.12.492-1.12 1.13V29.4l-2.338-4.537a1.102 1.102 0 00-.997-.625 1.13 1.13 0 00-.997.625l-2.234 4.461V19.36c0-.645-.481-1.13-1.12-1.13-.626 0-1.121.492-1.121 1.13v14.717c0 .535.35.992.845 1.117z" fill="#FFD530"/><path d="M101.764 36.297h-8.106a2.221 2.221 0 01-2.22-2.22V19.358a2.2 2.2 0 012.22-2.22h8.106c1.23 0 2.2.971 2.2 2.22 0 1.221-.983 2.22-2.2 2.22h-5.913v2.887h2.695c1.23 0 2.2.985 2.2 2.241 0 1.221-.983 2.22-2.2 2.22h-2.695v2.908h5.913c1.23 0 2.2.985 2.2 2.241-.007 1.221-.99 2.22-2.2 2.22z" fill="#000"/><path d="M93.651 18.228c-.64 0-1.141.493-1.141 1.131v14.717a1.14 1.14 0 001.141 1.131h8.106c.619 0 1.121-.506 1.121-1.13 0-.646-.489-1.153-1.121-1.153h-6.992v-5.086h3.774c.62 0 1.121-.506 1.121-1.13 0-.646-.488-1.153-1.12-1.153h-3.775V20.49h6.992c.619 0 1.121-.506 1.121-1.13 0-.646-.482-1.132-1.121-1.132h-8.106z" fill="#FFD530"/><path d="M11.688 50.202v-5.114c0-2.88 2.344-5.246 5.218-5.246 2.873 0 5.218 2.367 5.218 5.246 0 .444-.35.805-.777.805a.802.802 0 01-.798-.805c0-2.033-1.636-3.684-3.65-3.684a3.687 3.687 0 00-3.672 3.684v5.114c0 2.033 1.657 3.705 3.672 3.705 2.014 0 3.65-1.672 3.65-3.705v-.583h-4.503a.793.793 0 01-.777-.784c0-.444.351-.784.777-.784h5.308c.42 0 .777.333.777.784v1.36c0 2.9-2.345 5.267-5.218 5.267-2.874 0-5.226-2.36-5.226-5.26zm16.664-4.358l-2.832 8.98a.758.758 0 01-.729.554c-.09 0-.151-.02-.24-.041-.4-.132-.62-.555-.51-.986l2.833-9a.779.779 0 01.977-.492c.412.118.632.562.502.985zm5.507 9.493a.876.876 0 01-.22.041.802.802 0 01-.749-.555l-1.265-4.017h-3.163a.793.793 0 01-.776-.784c0-.424.357-.785.776-.785h2.654l-2.654-8.368c-.13-.423.11-.874.51-.985a.782.782 0 01.976.493l4.427 13.974a.784.784 0 01-.516.986zm12.321-.333l-7.432-11.588V54.6a.793.793 0 01-.777.784.793.793 0 01-.777-.784V40.73c0-.361.22-.674.55-.757.33-.09.687.042.887.333l7.41 11.609V40.73c0-.445.352-.785.778-.785.44 0 .777.334.777.785v13.863c0 .333-.22.646-.55.736-.07.02-.131.041-.22.041a.722.722 0 01-.647-.367zm4.874-4.802v-5.114c0-2.88 2.344-5.246 5.218-5.246s5.218 2.367 5.218 5.246c0 .444-.35.805-.777.805a.802.802 0 01-.797-.805c0-2.033-1.637-3.684-3.651-3.684s-3.671 1.651-3.671 3.684v5.114c0 2.033 1.657 3.705 3.671 3.705s3.65-1.672 3.65-3.705v-.583h-4.502a.793.793 0 01-.777-.784c0-.444.35-.784.776-.784h5.308c.42 0 .777.333.777.784v1.36c0 2.9-2.344 5.267-5.218 5.267s-5.225-2.36-5.225-5.26zm22.749 4.802l-7.432-11.588V54.6a.793.793 0 01-.777.784.793.793 0 01-.776-.784V40.73c0-.361.22-.674.55-.757.33-.09.687.042.886.333l7.412 11.609V40.73a.78.78 0 01.776-.785c.44 0 .777.334.777.785v13.863c0 .333-.22.646-.55.736-.068.02-.13.041-.22.041a.73.73 0 01-.646-.367zm8.717-9.16l-2.832 8.98a.758.758 0 01-.729.554c-.089 0-.15-.02-.24-.041-.399-.132-.619-.555-.509-.986l2.833-9a.779.779 0 01.976-.492c.412.118.632.562.502.985zm5.508 9.493a.874.874 0 01-.22.041.802.802 0 01-.75-.555L85.8 50.806h-3.162a.793.793 0 01-.777-.784c0-.424.357-.785.776-.785h2.654l-2.653-8.375c-.131-.423.11-.874.508-.985a.782.782 0 01.977.493l4.427 13.974a.793.793 0 01-.522.993zm12.148-.736V43.416l-3.012 4.732a.746.746 0 01-.639.361.782.782 0 01-.66-.36l-2.984-4.733V54.6c0 .424-.35.784-.777.784a.793.793 0 01-.776-.784V40.73c0-.361.22-.674.55-.757.33-.09.687.042.886.333l3.761 5.96 3.781-5.96a.768.768 0 01.86-.333c.33.09.55.403.55.757v13.863c0 .423-.33.784-.777.784a.78.78 0 01-.763-.777z" fill="#000"/></svg>
